;FLAVOR:Marlin
;TIME:15467
;Filament used: 11.8671m
;Layer height: 0.16
;MINX:74.115
;MINY:80.4
;MINZ:0.2
;MAXX:160.885
;MAXY:154.6
;MAXZ:43.52
;Generated with Cura_SteamEngine 4.8.0
M140 S60
M105
M190 S60
M104 S215
M105
M109 S215
M82 ;absolute extrusion mode
; Ender 3 Custom Start G-code
G92 E0 ; Reset Extruder
G28 ; Home all axes
G1 Z2.0 F3000 ; Move Z Axis up little to prevent scratching of Heat Bed
G1 X0.1 Y20 Z0.3 F5000.0 ; Move to start position
G1 X0.1 Y200.0 Z0.3 F1500.0 E15 ; Draw the first line
G1 X0.4 Y200.0 Z0.3 F5000.0 ; Move to side a little
G1 X0.4 Y20 Z0.3 F1500.0 E30 ; Draw the second line
G92 E0 ; Reset Extruder
G1 Z2.0 F3000 ; Move Z Axis up little to prevent scratching of Heat Bed
G1 X5 Y20 Z0.3 F5000.0 ; Move over to prevent blob squish
G92 E0
G92 E0
G1 F2700 E-5
;LAYER_COUNT:220
;LAYER:0
M107
G0 F6000 X77.313 Y83.664 Z0.2
;TYPE:SKIRT
G1 F2700 E0
G1 F1200 X78.001 Y83.027 E0.03119
G1 X78.741 Y82.451 E0.06237
G1 X79.527 Y81.939 E0.09357
G1 X80.354 Y81.497 E0.12476
G1 X81.216 Y81.127 E0.15596
G1 X82.106 Y80.831 E0.18716
G1 X83.018 Y80.613 E0.21835
G1 X83.945 Y80.472 E0.24953
G1 X84.816 Y80.413 E0.27857
G1 X85.137 Y80.404 E0.28925
G1 X85.445 Y80.4 E0.29949
G1 X149.178 Y80.4 E2.41926
G1 X150.034 Y80.411 E2.44774
G1 X150.97 Y80.465 E2.47892
G1 X151.898 Y80.597 E2.51009
G1 X152.812 Y80.809 E2.5413
G1 X153.704 Y81.098 E2.57249
G1 X154.569 Y81.461 E2.60369
G1 X155.399 Y81.897 E2.63487
G1 X156.19 Y82.402 E2.66609
G1 X156.934 Y82.973 E2.69728
G1 X157.627 Y83.605 E2.72847
G1 X158.264 Y84.293 E2.75966
G1 X158.839 Y85.034 E2.79085
G1 X159.35 Y85.82 E2.82204
G1 X159.792 Y86.648 E2.85325
G1 X160.161 Y87.51 E2.88444
G1 X160.456 Y88.4 E2.91562
G1 X160.674 Y89.312 E2.94681
G1 X160.814 Y90.24 E2.97803
G1 X160.872 Y91.101 E3.00673
G1 X160.881 Y91.421 E3.01738
G1 X160.885 Y91.73 E3.02765
G1 X160.884 Y143 E4.7329
G1 X160.875 Y143.727 E4.75708
G1 X160.824 Y144.664 E4.78829
G1 X160.692 Y145.592 E4.81947
G1 X160.483 Y146.506 E4.85066
G1 X160.196 Y147.399 E4.88185
G1 X159.834 Y148.265 E4.91307
G1 X159.4 Y149.096 E4.94425
G1 X158.896 Y149.887 E4.97545
G1 X158.327 Y150.632 E5.00663
G1 X157.696 Y151.327 E5.03785
G1 X157.009 Y151.965 E5.06903
G1 X156.27 Y152.542 E5.10022
G1 X155.484 Y153.054 E5.13142
G1 X154.658 Y153.497 E5.16259
G1 X153.796 Y153.869 E5.19382
G1 X152.907 Y154.165 E5.22498
G1 X151.995 Y154.385 E5.25618
G1 X151.068 Y154.526 E5.28737
G1 X150.184 Y154.587 E5.31684
G1 X149.863 Y154.596 E5.32752
G1 X149.555 Y154.6 E5.33777
G1 X85.68 Y154.599 E7.46226
G1 X84.982 Y154.59 E7.48548
G1 X84.046 Y154.538 E7.51666
G1 X83.117 Y154.406 E7.54787
G1 X82.203 Y154.196 E7.57906
G1 X81.31 Y153.909 E7.61026
G1 X80.445 Y153.546 E7.64146
G1 X79.614 Y153.112 E7.67264
G1 X78.823 Y152.608 E7.70383
G1 X78.078 Y152.038 E7.73503
G1 X77.384 Y151.407 E7.76623
G1 X76.747 Y150.72 E7.79739
G1 X76.17 Y149.98 E7.8286
G1 X75.658 Y149.194 E7.8598
G1 X75.215 Y148.367 E7.891
G1 X74.844 Y147.506 E7.92219
G1 X74.548 Y146.616 E7.95338
G1 X74.329 Y145.704 E7.98458
G1 X74.188 Y144.777 E8.01576
G1 X74.128 Y143.888 E8.0454
G1 X74.119 Y143.555 E8.05648
G1 X74.115 Y143.258 E8.06636
G1 X74.116 Y91.925 E9.7737
G1 X74.125 Y91.26 E9.79582
G1 X74.178 Y90.324 E9.827
G1 X74.31 Y89.395 E9.85821
G1 X74.521 Y88.481 E9.88941
G1 X74.809 Y87.589 E9.92059
G1 X75.172 Y86.724 E9.95179
G1 X75.607 Y85.893 E9.98298
G1 X76.111 Y85.103 E10.01415
G1 X76.681 Y84.358 E10.04535
G1 X77.313 Y83.664 E10.07657
G0 F6000 X77.704 Y83.839
G1 F1200 X78.389 Y83.223 E10.10721
G1 X79.125 Y82.67 E10.13783
G1 X79.906 Y82.182 E10.16846
G1 X80.726 Y81.764 E10.19907
G1 X81.58 Y81.419 E10.22971
G1 X82.46 Y81.149 E10.26032
G1 X83.36 Y80.957 E10.29093
G1 X84.274 Y80.843 E10.32157
G1 X84.827 Y80.813 E10.33999
G1 X85.148 Y80.804 E10.35067
G1 X85.445 Y80.8 E10.36055
G1 X149.178 Y80.8 E12.48031
G1 X150.028 Y80.811 E12.50859
G1 X150.947 Y80.864 E12.5392
G1 X151.858 Y80.997 E12.56983
G1 X152.754 Y81.208 E12.60044
G1 X153.628 Y81.496 E12.63105
G1 X154.475 Y81.859 E12.6617
G1 X155.286 Y82.294 E12.69231
G1 X156.056 Y82.798 E12.72292
G1 X156.78 Y83.367 E12.75354
G1 X157.452 Y83.997 E12.78418
G1 X158.067 Y84.682 E12.8148
G1 X158.62 Y85.418 E12.84542
G1 X159.107 Y86.199 E12.87603
G1 X159.524 Y87.02 E12.90666
G1 X159.869 Y87.874 E12.93729
G1 X160.138 Y88.754 E12.9679
G1 X160.33 Y89.655 E12.99854
G1 X160.443 Y90.568 E13.02914
G1 X160.472 Y91.112 E13.04726
G1 X160.481 Y91.432 E13.0579
G1 X160.485 Y91.73 E13.06782
G1 X160.484 Y142.995 E14.7729
G1 X160.475 Y143.722 E14.79708
G1 X160.424 Y144.641 E14.82769
G1 X160.293 Y145.553 E14.85834
G1 X160.083 Y146.449 E14.88894
G1 X159.797 Y147.324 E14.91956
G1 X159.436 Y148.171 E14.95019
G1 X159.002 Y148.983 E14.98081
G1 X158.5 Y149.755 E15.01144
G1 X157.932 Y150.48 E15.04207
G1 X157.304 Y151.153 E15.07268
G1 X156.62 Y151.769 E15.1033
G1 X155.885 Y152.323 E15.13391
G1 X155.105 Y152.812 E15.16453
G1 X154.285 Y153.231 E15.19516
G1 X153.432 Y153.577 E15.22578
G1 X152.552 Y153.848 E15.2564
G1 X151.652 Y154.041 E15.28702
G1 X150.738 Y154.156 E15.31766
G1 X150.173 Y154.187 E15.33648
G1 X149.852 Y154.196 E15.34716
G1 X149.555 Y154.2 E15.35704
G1 X85.685 Y154.199 E17.48136
G1 X84.987 Y154.19 E17.50458
G1 X84.068 Y154.138 E17.53519
G1 X83.157 Y154.007 E17.56581
G1 X82.261 Y153.797 E17.59641
G1 X81.386 Y153.51 E17.62704
G1 X80.539 Y153.148 E17.65768
G1 X79.727 Y152.714 E17.6883
G1 X78.956 Y152.212 E17.7189
G1 X78.231 Y151.644 E17.74953
G1 X77.558 Y151.015 E17.78017
G1 X76.943 Y150.331 E17.81077
G1 X76.389 Y149.596 E17.84138
G1 X75.901 Y148.815 E17.87201
G1 X75.482 Y147.995 E17.90264
G1 X75.136 Y147.142 E17.93325
G1 X74.866 Y146.262 E17.96387
G1 X74.673 Y145.361 E17.99452
G1 X74.559 Y144.448 E18.02512
G1 X74.528 Y143.877 E18.04414
G1 X74.519 Y143.544 E18.05522
G1 X74.515 Y143.258 E18.06473
G1 X74.516 Y91.931 E19.77187
G1 X74.525 Y91.266 E19.79399
G1 X74.577 Y90.346 E19.82464
G1 X74.709 Y89.435 E19.85526
G1 X74.92 Y88.539 E19.88587
G1 X75.207 Y87.664 E19.9165
G1 X75.57 Y86.818 E19.94712
G1 X76.004 Y86.006 E19.97774
G1 X76.507 Y85.235 E20.00836
G1 X77.076 Y84.511 E20.03899
G1 X77.704 Y83.839 E20.06958
G0 F6000 X78.096 Y84.017
G1 F1200 X78.777 Y83.424 E20.09961
G1 X79.509 Y82.894 E20.12967
G1 X80.284 Y82.431 E20.1597
G1 X81.097 Y82.038 E20.18973
G1 X81.942 Y81.718 E20.21979
G1 X82.811 Y81.475 E20.2498
G1 X83.699 Y81.309 E20.27984
G1 X84.838 Y81.213 E20.31786
G1 X85.159 Y81.204 E20.32854
G1 X85.445 Y81.2 E20.33806
G1 X149.178 Y81.2 E22.45782
G1 X150.022 Y81.211 E22.4859
G1 X150.924 Y81.264 E22.51595
G1 X151.817 Y81.396 E22.54597
G1 X152.695 Y81.607 E22.57601
G1 X153.551 Y81.895 E22.60605
G1 X154.378 Y82.257 E22.63607
G1 X155.17 Y82.692 E22.66613
G1 X155.921 Y83.194 E22.69617
G1 X156.624 Y83.761 E22.72621
G1 X157.274 Y84.388 E22.75625
G1 X157.866 Y85.07 E22.78629
G1 X158.396 Y85.801 E22.81632
G1 X158.858 Y86.577 E22.84635
G1 X159.251 Y87.39 E22.87639
G1 X159.569 Y88.235 E22.90642
G1 X159.812 Y89.105 E22.93646
G1 X159.977 Y89.993 E22.9665
G1 X160.072 Y91.123 E23.00422
G1 X160.081 Y91.443 E23.01487
G1 X160.085 Y91.73 E23.02441
G1 X160.084 Y142.99 E24.72933
G1 X160.075 Y143.717 E24.75351
G1 X160.024 Y144.619 E24.78356
G1 X159.893 Y145.513 E24.81361
G1 X159.684 Y146.391 E24.84363
G1 X159.398 Y147.248 E24.87368
G1 X159.037 Y148.076 E24.90372
G1 X158.605 Y148.868 E24.93373
G1 X158.104 Y149.62 E24.96378
G1 X157.538 Y150.324 E24.99383
G1 X156.913 Y150.975 E25.02384
G1 X156.232 Y151.569 E25.0539
G1 X155.501 Y152.1 E25.08395
G1 X154.727 Y152.564 E25.11396
G1 X153.914 Y152.958 E25.14401
G1 X153.07 Y153.278 E25.17403
G1 X152.2 Y153.523 E25.20409
G1 X151.313 Y153.689 E25.23411
G1 X150.162 Y153.787 E25.27253
G1 X149.841 Y153.796 E25.28321
G1 X149.555 Y153.8 E25.29272
G1 X85.69 Y153.799 E27.41688
G1 X84.992 Y153.79 E27.4401
G1 X84.091 Y153.739 E27.47011
G1 X83.197 Y153.607 E27.50017
G1 X82.319 Y153.398 E27.53019
G1 X81.462 Y153.111 E27.56025
G1 X80.635 Y152.75 E27.59026
G1 X79.842 Y152.317 E27.62031
G1 X79.091 Y151.816 E27.65034
G1 X78.387 Y151.25 E27.68038
G1 X77.736 Y150.624 E27.71042
G1 X77.143 Y149.943 E27.74046
G1 X76.613 Y149.212 E27.77049
G1 X76.149 Y148.437 E27.80053
G1 X75.755 Y147.624 E27.83058
G1 X75.435 Y146.78 E27.8606
G1 X75.191 Y145.91 E27.89065
G1 X75.025 Y145.022 E27.9207
G1 X74.928 Y143.867 E27.95925
G1 X74.919 Y143.534 E27.97033
G1 X74.915 Y143.258 E27.97951
G1 X74.916 Y91.936 E29.68649
G1 X74.925 Y91.271 E29.70861
G1 X74.977 Y90.369 E29.73866
G1 X75.109 Y89.476 E29.76868
G1 X75.319 Y88.598 E29.79871
G1 X75.606 Y87.741 E29.82877
G1 X75.968 Y86.914 E29.85879
G1 X76.401 Y86.122 E29.88882
G1 X76.903 Y85.371 E29.91886
G1 X77.47 Y84.667 E29.94893
G1 X78.096 Y84.017 E29.97894
G1 F2700 E24.97894
;MESH:mount.stl
G0 F6000 X84.703 Y90.989
G0 X85.535 Y91.82
G0 X148.703 Y92.582
G0 X148.885 Y142.6
;TYPE:WALL-INNER
G1 F2700 E29.97894
G1 F1200 X86.115 Y142.6 E32.06668
G1 X86.115 Y92.4 E33.73634
G1 X148.885 Y92.4 E35.82408
G1 X148.885 Y142.6 E37.49374
G0 F6000 X149.285 Y143
G1 F1200 X85.715 Y143 E39.60808
G1 X85.715 Y92 E41.30435
G1 X149.285 Y92 E43.4187
G1 X149.285 Y143 E45.11496
G0 F6000 X149.685 Y143.4
;TYPE:WALL-OUTER
G1 F1200 X85.315 Y143.4 E47.25592
G1 X85.315 Y91.6 E48.97879
G1 X149.685 Y91.6 E51.11975
G1 X149.685 Y143.4 E52.84262
G0 F6000 X149.415 Y143.13
G0 X148.775 Y142.21
G0 X148.495 Y142.21
;TYPE:SKIN
G1 F1200 X86.505 Y142.21 E54.90442
G1 X86.505 Y92.79 E56.54813
G1 X148.495 Y92.79 E58.60993
G1 X148.495 Y142.21 E60.25365
G1 F2700 E55.25365
G0 F6000 X148.775 Y142.21
G0 X148.775 Y93.463
G0 X148.334 Y93.463
G1 F2700 E60.25365
G1 F1200 X147.821 Y92.949 E60.2778
G0 F6000 X147.255 Y92.949
G1 F1200 X148.334 Y94.028 E60.32855
G0 F6000 X148.334 Y94.594
G1 F1200 X146.69 Y92.949 E60.40591
G0 F6000 X146.124 Y92.949
G1 F1200 X148.334 Y95.16 E60.50988
G0 F6000 X148.334 Y95.725
G1 F1200 X145.558 Y92.949 E60.64045
G0 F6000 X144.992 Y92.949
G1 F1200 X148.334 Y96.291 E60.79765
G0 F6000 X148.334 Y96.857
G1 F1200 X144.427 Y92.949 E60.98145
G0 F6000 X143.861 Y92.949
G1 F1200 X148.334 Y97.423 E61.19187
G0 F6000 X148.334 Y97.988
G1 F1200 X143.295 Y92.949 E61.42889
G0 F6000 X142.73 Y92.949
G1 F1200 X148.334 Y98.554 E61.69251
G0 F6000 X148.334 Y99.12
G1 F1200 X142.164 Y92.949 E61.98275
G0 F6000 X141.598 Y92.949
G1 F1200 X148.334 Y99.685 E62.29959
G0 F6000 X148.334 Y100.251
G1 F1200 X141.033 Y92.949 E62.64303
G0 F6000 X140.467 Y92.949
G1 F1200 X148.334 Y100.817 E63.01309
G0 F6000 X148.334 Y101.382
G1 F1200 X139.901 Y92.949 E63.40975
G0 F6000 X139.336 Y92.949
G1 F1200 X148.334 Y101.948 E63.83302
G0 F6000 X148.334 Y102.514
G1 F1200 X138.77 Y92.949 E64.2829
G0 F6000 X138.204 Y92.949
G1 F1200 X148.334 Y103.079 E64.75938
G0 F6000 X148.334 Y103.645
G1 F1200 X137.639 Y92.949 E65.26247
G0 F6000 X137.073 Y92.949
G1 F1200 X148.334 Y104.211 E65.79217
G0 F6000 X148.334 Y104.776
G1 F1200 X136.507 Y92.949 E66.34848
G0 F6000 X135.941 Y92.949
G1 F1200 X148.334 Y105.342 E66.93141
G0 F6000 X148.334 Y105.908
G1 F1200 X135.376 Y92.949 E67.54094
G0 F6000 X134.81 Y92.949
G1 F1200 X148.334 Y106.474 E68.17709
G0 F6000 X148.334 Y107.039
G1 F1200 X134.244 Y92.949 E68.83984
G0 F6000 X133.679 Y92.949
G1 F1200 X148.334 Y107.605 E69.52919
G0 F6000 X148.334 Y108.171
G1 F1200 X133.113 Y92.949 E70.24516
G0 F6000 X132.547 Y92.949
G1 F1200 X148.334 Y108.736 E70.98773
G0 F6000 X148.334 Y109.302
G1 F1200 X131.982 Y92.949 E71.7569
G0 F6000 X131.416 Y92.949
G1 F1200 X148.334 Y109.868 E72.5527
G0 F6000 X148.334 Y110.433
G1 F1200 X130.85 Y92.949 E73.37509
G0 F6000 X130.285 Y92.949
G1 F1200 X148.334 Y110.999 E74.22409
G0 F6000 X148.334 Y111.565
G1 F1200 X129.719 Y92.949 E75.0997
G0 F6000 X129.153 Y92.949
G1 F1200 X148.334 Y112.13 E76.00192
G0 F6000 X148.334 Y112.696
G1 F1200 X128.588 Y92.949 E76.93073
G0 F6000 X128.022 Y92.949
G1 F1200 X148.334 Y113.262 E77.88617
G0 F6000 X148.334 Y113.827
G1 F1200 X127.456 Y92.949 E78.86821
G0 F6000 X126.891 Y92.949
G1 F1200 X148.334 Y114.393 E79.87684
G0 F6000 X148.334 Y114.959
G1 F1200 X126.325 Y92.949 E80.9121
G0 F6000 X125.759 Y92.949
G1 F1200 X148.334 Y115.524 E81.97396
G0 F6000 X148.334 Y116.09
G1 F1200 X125.193 Y92.949 E83.06244
G0 F6000 X124.628 Y92.949
G1 F1200 X148.334 Y116.656 E84.17752
G0 F6000 X148.334 Y117.222
G1 F1200 X124.062 Y92.949 E85.31923
G0 F6000 X123.496 Y92.949
G1 F1200 X148.334 Y117.787 E86.48753
G0 F6000 X148.334 Y118.353
G1 F1200 X122.931 Y92.949 E87.68243
G0 F6000 X122.365 Y92.949
G1 F1200 X148.334 Y118.919 E88.90396
G0 F6000 X148.334 Y119.484
G1 F1200 X121.799 Y92.949 E90.15209
G0 F6000 X121.234 Y92.949
G1 F1200 X148.334 Y120.05 E91.42681
G0 F6000 X148.334 Y120.616
G1 F1200 X120.668 Y92.949 E92.72816
G0 F6000 X120.102 Y92.949
G1 F1200 X148.334 Y121.181 E94.0561
G0 F6000 X148.334 Y121.747
G1 F1200 X119.537 Y92.949 E95.41065
G0 F6000 X118.971 Y92.949
G1 F1200 X148.334 Y122.313 E96.79182
G0 F6000 X148.334 Y122.878
G1 F1200 X118.405 Y92.949 E98.19959
G0 F6000 X117.84 Y92.949
G1 F1200 X148.334 Y123.444 E99.63396
G0 F6000 X148.334 Y124.01
G1 F1200 X117.274 Y92.949 E101.09495
G0 F6000 X116.708 Y92.949
G1 F1200 X148.334 Y124.575 E102.58254
G0 F6000 X148.334 Y125.141
G1 F1200 X116.142 Y92.949 E104.09675
G0 F6000 X115.577 Y92.949
G1 F1200 X148.334 Y125.707 E105.63756
G0 F6000 X148.334 Y126.273
G1 F1200 X115.011 Y92.949 E107.205
G0 F6000 X114.445 Y92.949
G1 F1200 X148.334 Y126.838 E108.79903
G0 F6000 X148.334 Y127.404
G1 F1200 X113.88 Y92.949 E110.41967
G0 F6000 X113.314 Y92.949
G1 F1200 X148.334 Y127.97 E112.06692
G0 F6000 X148.334 Y128.535
G1 F1200 X112.748 Y92.949 E113.74078
G0 F6000 X112.183 Y92.949
G1 F1200 X148.334 Y129.101 E115.44123
G0 F6000 X148.334 Y129.667
G1 F1200 X111.617 Y92.949 E117.16831
G0 F6000 X111.051 Y92.949
G1 F1200 X148.334 Y130.232 E118.92199
G0 F6000 X148.334 Y130.798
G1 F1200 X110.486 Y92.949 E120.70227
G0 F6000 X109.92 Y92.949
G1 F1200 X148.334 Y131.364 E122.50917
G0 F6000 X148.334 Y131.929
G1 F1200 X109.354 Y92.949 E124.34267
G0 F6000 X108.789 Y92.949
G1 F1200 X148.334 Y132.495 E126.20277
G0 F6000 X148.334 Y133.061
G1 F1200 X108.223 Y92.949 E128.08949
G0 F6000 X107.657 Y92.949
G1 F1200 X148.334 Y133.626 E130.00281
G0 F6000 X148.334 Y134.192
G1 F1200 X107.092 Y92.949 E131.94273
G0 F6000 X106.526 Y92.949
G1 F1200 X148.334 Y134.758 E133.90928
G0 F6000 X148.334 Y135.323
G1 F1200 X105.96 Y92.949 E135.90242
G0 F6000 X105.394 Y92.949
G1 F1200 X148.334 Y135.889 E137.92218
G0 F6000 X148.334 Y136.455
G1 F1200 X104.829 Y92.949 E139.96855
G0 F6000 X104.263 Y92.949
G1 F1200 X148.334 Y137.021 E142.04154
G0 F6000 X148.334 Y137.586
G1 F1200 X103.697 Y92.949 E144.14113
G0 F6000 X103.132 Y92.949
G1 F1200 X148.334 Y138.152 E146.26731
G0 F6000 X148.334 Y138.718
G1 F1200 X102.566 Y92.949 E148.42012
G0 F6000 X102 Y92.949
G1 F1200 X148.334 Y139.283 E150.59953
G0 F6000 X148.334 Y139.849
G1 F1200 X101.435 Y92.949 E152.80554
G0 F6000 X100.869 Y92.949
G1 F1200 X148.334 Y140.415 E155.03817
G0 F6000 X148.334 Y140.98
G1 F1200 X100.303 Y92.949 E157.2974
G0 F6000 X99.738 Y92.949
G1 F1200 X148.334 Y141.546 E159.58323
G0 F6000 X148.271 Y142.049
G1 F1200 X99.172 Y92.949 E161.89272
G0 F6000 X98.606 Y92.949
G1 F1200 X147.706 Y142.049 E164.20224
G0 F6000 X147.14 Y142.049
G1 F1200 X98.041 Y92.949 E166.51173
G0 F6000 X97.475 Y92.949
G1 F1200 X146.574 Y142.049 E168.82122
G0 F6000 X146.009 Y142.049
G1 F1200 X96.909 Y92.949 E171.13073
G0 F6000 X96.344 Y92.949
G1 F1200 X145.443 Y142.049 E173.44022
G0 F6000 X144.877 Y142.049
G1 F1200 X95.778 Y92.949 E175.74971
G0 F6000 X95.212 Y92.949
G1 F1200 X144.312 Y142.049 E178.05922
G0 F6000 X143.746 Y142.049
G1 F1200 X94.646 Y92.949 E180.36874
G0 F6000 X94.081 Y92.949
G1 F1200 X143.18 Y142.049 E182.67823
G0 F6000 X142.614 Y142.049
G1 F1200 X93.515 Y92.949 E184.98772
G0 F6000 X92.949 Y92.949
G1 F1200 X142.049 Y142.049 E187.29723
G0 F6000 X141.483 Y142.049
G1 F1200 X92.384 Y92.949 E189.60672
G0 F6000 X91.818 Y92.949
G1 F1200 X140.917 Y142.049 E191.91621
G0 F6000 X140.352 Y142.049
G1 F1200 X91.252 Y92.949 E194.22572
G0 F6000 X90.687 Y92.949
G1 F1200 X139.786 Y142.049 E196.53521
G0 F6000 X139.22 Y142.049
G1 F1200 X90.121 Y92.949 E198.8447
G0 F6000 X89.555 Y92.949
G1 F1200 X138.655 Y142.049 E201.15422
G0 F6000 X138.089 Y142.049
G1 F1200 X88.99 Y92.949 E203.46371
