;FLAVOR:Marlin
;TIME:6974
;Filament used: 5.30413m
;Layer height: 0.2
;MINX:84.5
;MINY:48.5
;MINZ:0.2
;MAXX:150.5
;MAXY:186.5
;MAXZ:8
;Generated with Cura_SteamEngine 4.8.0
M140 S60
M105
M190 S60
M104 S215
M105
M109 S215
M82 ;absolute extrusion mode
; Ender 3 Custom Start G-code
G92 E0 ; Reset Extruder
G28 ; Home all axes
G1 Z2.0 F3000 ; Move Z Axis up little to prevent scratching of Heat Bed
G1 X0.1 Y20 Z0.3 F5000.0 ; Move to start position
G1 X0.1 Y200.0 Z0.3 F1500.0 E15 ; Draw the first line
G1 X0.4 Y200.0 Z0.3 F5000.0 ; Move to side a little
G1 X0.4 Y20 Z0.3 F1500.0 E30 ; Draw the second line
G92 E0 ; Reset Extruder
G1 Z2.0 F3000 ; Move Z Axis up little to prevent scratching of Heat Bed
G1 X5 Y20 Z0.3 F5000.0 ; Move over to prevent blob squish
G92 E0
G92 E0
G1 F2700 E-5
;LAYER_COUNT:40
;LAYER:0
M107
G0 F6000 X85.992 Y53.993 Z0.2
;TYPE:SKIRT
G1 F2700 E0
G1 F1200 X86.496 Y53.203 E0.03117
G1 X87.066 Y52.458 E0.06237
G1 X87.698 Y51.764 E0.09359
G1 X88.386 Y51.127 E0.12477
G1 X89.126 Y50.551 E0.15596
G1 X89.912 Y50.039 E0.18716
G1 X90.739 Y49.597 E0.21835
G1 X91.601 Y49.227 E0.24955
G1 X92.491 Y48.931 E0.28074
G1 X93.403 Y48.713 E0.31193
G1 X94.33 Y48.572 E0.34312
G1 X95.201 Y48.513 E0.37216
G1 X95.522 Y48.504 E0.38284
G1 X95.83 Y48.5 E0.39308
G1 X108.44 Y48.5 E0.81249
G1 X109.307 Y48.511 E0.84133
G1 X109.934 Y48.538 E0.8622
G1 X111.173 Y48.626 E0.90352
G1 X113.747 Y48.773 E0.98927
G1 X116.295 Y48.845 E1.07405
G1 X118.784 Y48.845 E1.15683
G1 X121.317 Y48.773 E1.24111
G1 X123.877 Y48.629 E1.3264
G1 X124.894 Y48.549 E1.36033
G1 X125.222 Y48.528 E1.37126
G1 X125.553 Y48.513 E1.38228
G1 X125.873 Y48.504 E1.39292
G1 X126.182 Y48.5 E1.4032
G1 X138.951 Y48.501 E1.8279
G1 X139.649 Y48.511 E1.85112
G1 X140.585 Y48.565 E1.8823
G1 X141.513 Y48.697 E1.91348
G1 X142.427 Y48.909 E1.94469
G1 X143.319 Y49.198 E1.97587
G1 X144.184 Y49.561 E2.00707
G1 X145.014 Y49.997 E2.03826
G1 X145.805 Y50.502 E2.06947
G1 X146.549 Y51.073 E2.10066
G1 X147.242 Y51.705 E2.13186
G1 X147.879 Y52.393 E2.16304
G1 X148.454 Y53.134 E2.19424
G1 X148.965 Y53.92 E2.22542
G1 X149.407 Y54.748 E2.25664
G1 X149.776 Y55.61 E2.28782
G1 X150.071 Y56.5 E2.31901
G1 X150.289 Y57.412 E2.3502
G1 X150.429 Y58.34 E2.38141
G1 X150.487 Y59.201 E2.41011
G1 X150.496 Y59.521 E2.42076
G1 X150.5 Y59.83 E2.43104
G1 X150.499 Y174.9 E6.25828
G1 X150.49 Y175.627 E6.28246
G1 X150.439 Y176.564 E6.31368
G1 X150.307 Y177.492 E6.34485
G1 X150.098 Y178.406 E6.37604
G1 X149.811 Y179.299 E6.40723
G1 X149.449 Y180.165 E6.43845
G1 X149.015 Y180.996 E6.46963
G1 X148.511 Y181.787 E6.50083
G1 X147.942 Y182.532 E6.53201
G1 X147.311 Y183.227 E6.56323
G1 X146.624 Y183.865 E6.59441
G1 X145.885 Y184.442 E6.6256
G1 X145.099 Y184.954 E6.6568
G1 X144.273 Y185.397 E6.68797
G1 X143.411 Y185.769 E6.7192
G1 X142.522 Y186.065 E6.75036
G1 X141.61 Y186.285 E6.78157
G1 X140.683 Y186.426 E6.81275
G1 X139.799 Y186.487 E6.84222
G1 X139.478 Y186.496 E6.8529
G1 X139.17 Y186.5 E6.86315
G1 X96.065 Y186.499 E8.29683
G1 X95.367 Y186.49 E8.32005
G1 X94.431 Y186.438 E8.35122
G1 X93.502 Y186.306 E8.38243
G1 X92.588 Y186.096 E8.41363
G1 X91.695 Y185.809 E8.44482
G1 X90.83 Y185.446 E8.47602
G1 X89.999 Y185.012 E8.50721
G1 X89.208 Y184.508 E8.5384
G1 X88.463 Y183.938 E8.5696
G1 X87.769 Y183.307 E8.6008
G1 X87.132 Y182.62 E8.63196
G1 X86.555 Y181.88 E8.66317
G1 X86.043 Y181.094 E8.69437
G1 X85.6 Y180.267 E8.72557
G1 X85.229 Y179.406 E8.75675
G1 X84.933 Y178.516 E8.78795
G1 X84.714 Y177.604 E8.81915
G1 X84.573 Y176.677 E8.85033
G1 X84.513 Y175.788 E8.87997
G1 X84.504 Y175.455 E8.89105
G1 X84.5 Y175.158 E8.90093
G1 X84.501 Y60.025 E12.73027
G1 X84.51 Y59.36 E12.75239
G1 X84.563 Y58.424 E12.78357
G1 X84.695 Y57.495 E12.81478
G1 X84.906 Y56.581 E12.84598
G1 X85.194 Y55.689 E12.87715
G1 X85.557 Y54.824 E12.90835
G1 X85.992 Y53.993 E12.93955
G0 F6000 X86.389 Y54.106
G1 F1200 X86.892 Y53.335 E12.97017
G1 X87.461 Y52.611 E13.00079
G1 X88.089 Y51.939 E13.03139
G1 X88.774 Y51.323 E13.06203
G1 X89.51 Y50.77 E13.09265
G1 X90.291 Y50.282 E13.12328
G1 X91.111 Y49.864 E13.15389
G1 X91.965 Y49.519 E13.18452
G1 X92.845 Y49.249 E13.21514
G1 X93.745 Y49.057 E13.24575
G1 X94.659 Y48.943 E13.27638
G1 X95.212 Y48.913 E13.2948
G1 X95.533 Y48.904 E13.30548
G1 X95.83 Y48.9 E13.31536
G1 X108.44 Y48.9 E13.73477
G1 X109.302 Y48.911 E13.76344
G1 X109.905 Y48.937 E13.78352
G1 X111.12 Y49.023 E13.82403
G1 X113.747 Y49.173 E13.91155
G1 X116.284 Y49.245 E13.99596
G1 X118.795 Y49.245 E14.07948
G1 X121.35 Y49.173 E14.16449
G1 X123.89 Y49.03 E14.24911
G1 X124.926 Y48.948 E14.28367
G1 X125.246 Y48.927 E14.29434
G1 X125.564 Y48.913 E14.30492
G1 X125.884 Y48.904 E14.31557
G1 X126.182 Y48.9 E14.32548
G1 X138.945 Y48.901 E14.74998
G1 X139.643 Y48.911 E14.7732
G1 X140.562 Y48.964 E14.80382
G1 X141.473 Y49.097 E14.83444
G1 X142.369 Y49.308 E14.86506
G1 X143.243 Y49.596 E14.89566
G1 X144.09 Y49.959 E14.92631
G1 X144.901 Y50.394 E14.95692
G1 X145.671 Y50.898 E14.98753
G1 X146.395 Y51.467 E15.01816
G1 X147.067 Y52.097 E15.04879
G1 X147.682 Y52.782 E15.07941
G1 X148.235 Y53.518 E15.11003
G1 X148.722 Y54.299 E15.14064
G1 X149.139 Y55.12 E15.17127
G1 X149.484 Y55.974 E15.20191
G1 X149.753 Y56.854 E15.23251
G1 X149.945 Y57.755 E15.26315
G1 X150.058 Y58.668 E15.29375
G1 X150.087 Y59.212 E15.31187
G1 X150.096 Y59.532 E15.32252
G1 X150.1 Y59.83 E15.33243
G1 X150.099 Y174.895 E19.15951
G1 X150.09 Y175.622 E19.18369
G1 X150.039 Y176.541 E19.2143
G1 X149.908 Y177.453 E19.24495
G1 X149.698 Y178.349 E19.27555
G1 X149.412 Y179.224 E19.30617
G1 X149.051 Y180.071 E19.3368
G1 X148.617 Y180.883 E19.36742
G1 X148.115 Y181.655 E19.39805
G1 X147.547 Y182.38 E19.42868
G1 X146.919 Y183.053 E19.4593
G1 X146.235 Y183.669 E19.48991
G1 X145.5 Y184.223 E19.52052
G1 X144.72 Y184.712 E19.55114
G1 X143.9 Y185.131 E19.58177
G1 X143.047 Y185.477 E19.61239
G1 X142.167 Y185.748 E19.64301
G1 X141.267 Y185.941 E19.67363
G1 X140.353 Y186.056 E19.70427
G1 X139.788 Y186.087 E19.72309
G1 X139.467 Y186.096 E19.73377
G1 X139.17 Y186.1 E19.74365
G1 X96.07 Y186.099 E21.17716
G1 X95.372 Y186.09 E21.20038
G1 X94.453 Y186.038 E21.23099
G1 X93.542 Y185.907 E21.2616
G1 X92.646 Y185.697 E21.29221
G1 X91.771 Y185.41 E21.32284
G1 X90.924 Y185.048 E21.35348
G1 X90.112 Y184.614 E21.3841
G1 X89.341 Y184.112 E21.4147
G1 X88.616 Y183.544 E21.44533
G1 X87.943 Y182.915 E21.47597
G1 X87.328 Y182.231 E21.50656
G1 X86.774 Y181.496 E21.53718
G1 X86.286 Y180.715 E21.56781
G1 X85.867 Y179.895 E21.59843
G1 X85.521 Y179.042 E21.62905
G1 X85.251 Y178.162 E21.65967
G1 X85.058 Y177.261 E21.69031
G1 X84.944 Y176.348 E21.72091
G1 X84.913 Y175.777 E21.73993
G1 X84.904 Y175.444 E21.75101
G1 X84.9 Y175.158 E21.76053
G1 X84.901 Y60.031 E25.58967
G1 X84.91 Y59.366 E25.61179
G1 X84.962 Y58.446 E25.64244
G1 X85.094 Y57.535 E25.67305
G1 X85.305 Y56.639 E25.70367
G1 X85.592 Y55.764 E25.7343
G1 X85.955 Y54.918 E25.76491
G1 X86.389 Y54.106 E25.79554
G0 F6000 X86.786 Y54.222
G1 F1200 X87.288 Y53.471 E25.82558
G1 X87.855 Y52.767 E25.85565
G1 X88.481 Y52.117 E25.88566
G1 X89.162 Y51.524 E25.9157
G1 X89.894 Y50.994 E25.94575
G1 X90.669 Y50.531 E25.97578
G1 X91.482 Y50.138 E26.00581
G1 X92.327 Y49.818 E26.03587
G1 X93.196 Y49.575 E26.06588
G1 X94.084 Y49.409 E26.09593
G1 X95.223 Y49.313 E26.13394
G1 X95.544 Y49.304 E26.14462
G1 X95.83 Y49.3 E26.15414
G1 X108.44 Y49.3 E26.57355
G1 X109.296 Y49.311 E26.60202
G1 X109.877 Y49.336 E26.62136
G1 X111.138 Y49.426 E26.66341
G1 X113.714 Y49.573 E26.74923
G1 X116.273 Y49.645 E26.83437
G1 X118.806 Y49.645 E26.91862
G1 X121.35 Y49.573 E27.00327
G1 X123.941 Y49.427 E27.08958
G1 X125.166 Y49.332 E27.13045
G1 X125.575 Y49.313 E27.14407
G1 X125.895 Y49.304 E27.15472
G1 X126.182 Y49.3 E27.16426
G1 X138.939 Y49.301 E27.58856
G1 X139.637 Y49.311 E27.61178
G1 X140.539 Y49.364 E27.64183
G1 X141.432 Y49.496 E27.67186
G1 X142.31 Y49.707 E27.70189
G1 X143.166 Y49.995 E27.73193
G1 X143.993 Y50.357 E27.76195
G1 X144.785 Y50.792 E27.79201
G1 X145.536 Y51.294 E27.82205
G1 X146.239 Y51.861 E27.85209
G1 X146.889 Y52.488 E27.88213
G1 X147.481 Y53.17 E27.91217
G1 X148.011 Y53.901 E27.9422
G1 X148.473 Y54.677 E27.97224
G1 X148.866 Y55.49 E28.00227
G1 X149.184 Y56.335 E28.0323
G1 X149.427 Y57.205 E28.06234
G1 X149.592 Y58.093 E28.09238
G1 X149.687 Y59.223 E28.1301
G1 X149.696 Y59.543 E28.14075
G1 X149.7 Y59.83 E28.15029
G1 X149.699 Y174.89 E31.97721
G1 X149.69 Y175.617 E32.00139
G1 X149.639 Y176.519 E32.03144
G1 X149.508 Y177.413 E32.06149
G1 X149.299 Y178.291 E32.09151
G1 X149.013 Y179.148 E32.12156
G1 X148.652 Y179.976 E32.1516
G1 X148.22 Y180.768 E32.1816
G1 X147.719 Y181.52 E32.21166
G1 X147.153 Y182.224 E32.2417
G1 X146.528 Y182.875 E32.27172
G1 X145.847 Y183.469 E32.30177
G1 X145.116 Y184 E32.33183
G1 X144.342 Y184.464 E32.36184
G1 X143.529 Y184.858 E32.39189
G1 X142.685 Y185.178 E32.42191
G1 X141.815 Y185.423 E32.45197
G1 X140.928 Y185.589 E32.48199
G1 X139.777 Y185.687 E32.52041
G1 X139.456 Y185.696 E32.53109
G1 X139.17 Y185.7 E32.5406
G1 X96.075 Y185.699 E33.97395
G1 X95.377 Y185.69 E33.99716
G1 X94.476 Y185.639 E34.02718
G1 X93.582 Y185.507 E34.05724
G1 X92.704 Y185.298 E34.08725
G1 X91.847 Y185.011 E34.11731
G1 X91.02 Y184.65 E34.14733
G1 X90.227 Y184.217 E34.17738
G1 X89.476 Y183.716 E34.2074
G1 X88.772 Y183.15 E34.23745
G1 X88.121 Y182.524 E34.26749
G1 X87.528 Y181.843 E34.29752
G1 X86.998 Y181.112 E34.32755
G1 X86.534 Y180.337 E34.3576
G1 X86.14 Y179.524 E34.38764
G1 X85.82 Y178.68 E34.41767
G1 X85.576 Y177.81 E34.44772
G1 X85.41 Y176.922 E34.47777
G1 X85.313 Y175.767 E34.51632
G1 X85.304 Y175.434 E34.5274
G1 X85.3 Y175.158 E34.53658
G1 X85.301 Y60.036 E38.36555
G1 X85.31 Y59.371 E38.38767
G1 X85.362 Y58.469 E38.41772
G1 X85.494 Y57.576 E38.44774
G1 X85.704 Y56.698 E38.47777
G1 X85.991 Y55.841 E38.50783
G1 X86.353 Y55.014 E38.53786
G1 X86.786 Y54.222 E38.56788
G1 F2700 E33.56788
;MESH:data mount.stl
G0 F6000 X94.835 Y60.31
G0 X96.31 Y60.31
G0 X96.282 Y174.718
G0 X138.9 Y174.9
;TYPE:WALL-INNER
G1 F2700 E38.56788
G1 F1200 X96.1 Y174.9 E39.99141
G1 X96.1 Y60.1 E43.80968
G1 X108.547 Y60.1 E44.22366
G1 X108.547 Y66.1 E44.42323
G1 X126.452 Y66.1 E45.01875
G1 X126.452 Y60.1 E45.21831
G1 X138.9 Y60.1 E45.63233
G1 X138.9 Y174.9 E49.45059
G0 F6000 X139.3 Y175.3
;TYPE:WALL-OUTER
G1 F1200 X95.7 Y175.3 E50.90074
G1 X95.7 Y59.7 E54.74561
G1 X108.947 Y59.7 E55.1862
G1 X108.947 Y65.7 E55.38577
G1 X126.052 Y65.7 E55.95468
G1 X126.052 Y59.7 E56.15424
G1 X139.3 Y59.7 E56.59487
G1 X139.3 Y175.3 E60.43974
G0 F6000 X139.03 Y175.03
G0 X138.79 Y174.51
G0 X138.51 Y174.51
;TYPE:SKIN
G1 F1200 X96.49 Y174.51 E61.83733
G1 X96.49 Y60.49 E65.62965
G1 X108.157 Y60.49 E66.0177
G1 X108.157 Y66.49 E66.21726
G1 X126.842 Y66.49 E66.83873
G1 X126.842 Y60.49 E67.03829
G1 X138.51 Y60.49 E67.42637
G1 X138.51 Y174.51 E71.21869
G1 F2700 E66.21869
G0 F6000 X138.79 Y174.51
G0 X96.85 Y174.79
G0 X96.85 Y174.349
G1 F2700 E71.21869
G1 F1200 X96.648 Y174.147 E71.22819
G0 F6000 X96.648 Y173.581
G1 F1200 X97.415 Y174.349 E71.26429
G0 F6000 X97.981 Y174.349
G1 F1200 X96.648 Y173.016 E71.32699
G0 F6000 X96.648 Y172.45
G1 F1200 X98.547 Y174.349 E71.41631
G0 F6000 X99.113 Y174.349
G1 F1200 X96.648 Y171.884 E71.53226
G0 F6000 X96.648 Y171.319
G1 F1200 X99.678 Y174.349 E71.67478
G0 F6000 X100.244 Y174.349
G1 F1200 X96.648 Y170.753 E71.84393
G0 F6000 X96.648 Y170.187
G1 F1200 X100.81 Y174.349 E72.03969
G0 F6000 X101.375 Y174.349
G1 F1200 X96.648 Y169.622 E72.26204
G0 F6000 X96.648 Y169.056
G1 F1200 X101.941 Y174.349 E72.511
G0 F6000 X102.507 Y174.349
G1 F1200 X96.648 Y168.49 E72.78659
G0 F6000 X96.648 Y167.925
G1 F1200 X103.072 Y174.349 E73.08876
G0 F6000 X103.638 Y174.349
G1 F1200 X96.648 Y167.359 E73.41755
G0 F6000 X96.648 Y166.793
G1 F1200 X104.204 Y174.349 E73.77296
G0 F6000 X104.769 Y174.349
G1 F1200 X96.648 Y166.228 E74.15494
G0 F6000 X96.648 Y165.662
G1 F1200 X105.335 Y174.349 E74.56355
G0 F6000 X105.901 Y174.349
G1 F1200 X96.648 Y165.096 E74.99879
G0 F6000 X96.648 Y164.531
G1 F1200 X106.466 Y174.349 E75.4606
G0 F6000 X107.032 Y174.349
G1 F1200 X96.648 Y163.965 E75.94903
G0 F6000 X96.648 Y163.399
G1 F1200 X107.598 Y174.349 E76.46408
G0 F6000 X108.164 Y174.349
G1 F1200 X96.648 Y162.833 E77.00576
G0 F6000 X96.648 Y162.268
G1 F1200 X108.729 Y174.349 E77.57401
G0 F6000 X109.295 Y174.349
G1 F1200 X96.648 Y161.702 E78.16889
G0 F6000 X96.648 Y161.136
G1 F1200 X109.861 Y174.349 E78.79039
G0 F6000 X110.426 Y174.349
G1 F1200 X96.648 Y160.571 E79.43846
G0 F6000 X96.648 Y160.005
G1 F1200 X110.992 Y174.349 E80.11316
G0 F6000 X111.558 Y174.349
G1 F1200 X96.648 Y159.439 E80.81448
G0 F6000 X96.648 Y158.874
G1 F1200 X112.123 Y174.349 E81.54238
G0 F6000 X112.689 Y174.349
G1 F1200 X96.648 Y158.308 E82.2969
G0 F6000 X96.648 Y157.742
G1 F1200 X113.255 Y174.349 E83.07804
G0 F6000 X113.82 Y174.349
G1 F1200 X96.648 Y157.177 E83.88576
G0 F6000 X96.648 Y156.611
G1 F1200 X114.386 Y174.349 E84.7201
G0 F6000 X114.952 Y174.349
G1 F1200 X96.648 Y156.045 E85.58106
G0 F6000 X96.648 Y155.48
G1 F1200 X115.517 Y174.349 E86.4686
G0 F6000 X116.083 Y174.349
G1 F1200 X96.648 Y154.914 E87.38277
G0 F6000 X96.648 Y154.348
G1 F1200 X116.649 Y174.349 E88.32355
G0 F6000 X117.214 Y174.349
G1 F1200 X96.648 Y153.782 E89.29094
G0 F6000 X96.648 Y153.217
G1 F1200 X117.78 Y174.349 E90.28492
G0 F6000 X118.346 Y174.349
G1 F1200 X96.648 Y152.651 E91.30553
G0 F6000 X96.648 Y152.085
G1 F1200 X118.912 Y174.349 E92.35276
G0 F6000 X119.477 Y174.349
G1 F1200 X96.648 Y151.52 E93.42656
G0 F6000 X96.648 Y150.954
G1 F1200 X120.043 Y174.349 E94.52699
G0 F6000 X120.609 Y174.349
G1 F1200 X96.648 Y150.388 E95.65405
G0 F6000 X96.648 Y149.823
G1 F1200 X121.174 Y174.349 E96.80767
G0 F6000 X121.74 Y174.349
G1 F1200 X96.648 Y149.257 E97.98792
G0 F6000 X96.648 Y148.691
G1 F1200 X122.306 Y174.349 E99.1948
G0 F6000 X122.871 Y174.349
G1 F1200 X96.648 Y148.126 E100.42825
G0 F6000 X96.648 Y147.56
G1 F1200 X123.437 Y174.349 E101.68832
G0 F6000 X124.003 Y174.349
G1 F1200 X96.648 Y146.994 E102.97501
G0 F6000 X96.648 Y146.429
G1 F1200 X124.568 Y174.349 E104.28829
G0 F6000 X125.134 Y174.349
G1 F1200 X96.648 Y145.863 E105.62818
G0 F6000 X96.648 Y145.297
G1 F1200 X125.7 Y174.349 E106.9947
G0 F6000 X126.265 Y174.349
G1 F1200 X96.648 Y144.732 E108.38779
G0 F6000 X96.648 Y144.166
G1 F1200 X126.831 Y174.349 E109.80751
G0 F6000 X127.397 Y174.349
G1 F1200 X96.648 Y143.6 E111.25384
G0 F6000 X96.648 Y143.034
G1 F1200 X127.962 Y174.349 E112.72678
G0 F6000 X128.528 Y174.349
G1 F1200 X96.648 Y142.469 E114.22632
G0 F6000 X96.648 Y141.903
G1 F1200 X129.094 Y174.349 E115.75248
G0 F6000 X129.66 Y174.349
G1 F1200 X96.648 Y141.337 E117.30526
G0 F6000 X96.648 Y140.772
G1 F1200 X130.225 Y174.349 E118.88462
G0 F6000 X130.791 Y174.349
G1 F1200 X96.648 Y140.206 E120.4906
G0 F6000 X96.648 Y139.64
G1 F1200 X131.357 Y174.349 E122.12321
G0 F6000 X131.922 Y174.349
G1 F1200 X96.648 Y139.075 E123.78239
G0 F6000 X96.648 Y138.509
G1 F1200 X132.488 Y174.349 E125.46819
G0 F6000 X133.054 Y174.349
G1 F1200 X96.648 Y137.943 E127.18062
G0 F6000 X96.648 Y137.378
G1 F1200 X133.619 Y174.349 E128.91962
G0 F6000 X134.185 Y174.349
G1 F1200 X96.648 Y136.812 E130.68525
G0 F6000 X96.648 Y136.246
G1 F1200 X134.751 Y174.349 E132.4775
G0 F6000 X135.316 Y174.349
G1 F1200 X96.648 Y135.681 E134.29632
G0 F6000 X96.648 Y135.115
G1 F1200 X135.882 Y174.349 E136.14177
G0 F6000 X136.448 Y174.349
G1 F1200 X96.648 Y134.549 E138.01384
G0 F6000 X96.648 Y133.984
G1 F1200 X137.013 Y174.349 E139.91248
G0 F6000 X137.579 Y174.349
G1 F1200 X96.648 Y133.418 E141.83775
G0 F6000 X96.648 Y132.852
G1 F1200 X138.145 Y174.349 E143.78964
G0 F6000 X138.35 Y173.988
G1 F1200 X96.648 Y132.286 E145.75118
G0 F6000 X96.648 Y131.721
G1 F1200 X138.35 Y173.422 E147.71269
G0 F6000 X138.35 Y172.857
G1 F1200 X96.648 Y131.155 E149.67422
G0 F6000 X96.648 Y130.589
G1 F1200 X138.35 Y172.291 E151.63576
G0 F6000 X138.35 Y171.725
G1 F1200 X96.648 Y130.024 E153.59727
G0 F6000 X96.648 Y129.458
G1 F1200 X138.35 Y171.16 E155.5588
G0 F6000 X138.35 Y170.594
G1 F1200 X96.648 Y128.892 E157.52034
G0 F6000 X96.648 Y128.327
G1 F1200 X138.35 Y170.028 E159.48185
G0 F6000 X138.35 Y169.463
G1 F1200 X96.648 Y127.761 E161.44338
